X: 06048
T: MARTIN'S REEL
C: Bob McQuillen 2 Feb 82
B: Bob's Note Book 6 #48
%R: reel
Z: 2021 John Chambers <jc:trillian.mit.edu>
M: C
L: 1/8
K: D
AG \
| FDAF dAFD | BGBd gdBG | Aege cAce | dfdB ABAG |\
| FDAF dAFD | BGBd gdBG | Aege cAeg | f2d2 d2 :|
|: fg \
| afdf Adfa | gece Aceg | fafd gfed | cdef edcB |\
| AFDF Adfa | gece Aceg | fafd gecd | e2d2 d2 :|
%%begintext align
%% Pete Colby's fuzzy
%% buddy is a cute kitty cat named Martin. He
%% sometimes lilts a purrfect bass-line to this tune.
%%endtext

%%sep 1 1 500

%%sep 1 1 500

